X: 1
T: Hollolan valssi
C:
R: waltz
Z: 2013 John Chambers <jc:trillian.mit.edu>
S: handwritten copy of unknown origin
M: 3/4
L: 1/8
K: C
|:\
"C"C2 E2 E2 | E2 G2 G2 | Gc ed cB | AG FE DC |\
"G7"B,2 D2 D2 | D2 F2 F2 | FG Bd fB | "C"c6 :|
|:\
"G7"df dB GB | df dB GB |\
[1,3 "C"ce gc' e'c' | ge cG ce :|\
[2,4 "C"eg ec "G7"dB | "C"c6 :|[K:F]
|:\
"F"af cA Bd | dc AC FA | "C7"cB GC EG |\
[1,3 "F"dc A2 c2 :|2 "F"F6 :|4 "F"F4 AB ||
|:\
"C7"c3 d cB | "F"AF Ac f2 | "F"fe fa "C7"ge |\
[1,3 "C7"gf ed c=B :|2 "F"f4 AB :|4 "F" f6 |]
